X:1
T:Pachelbel's canon
%%score 1 2 { 3 | 4 } { 5 | 6 }
L:1/8
M:4/4
K:D
V:1 treble nm="Vibraphone" snm="Vib."
V:2 treble nm="Vibraphone" snm="Vib."
V:3 treble nm="Marimba" snm="Mrm."
V:4 bass 
V:5 treble nm="Marimba" snm="Mrm."
V:6 bass 
V:1
!p! ([df]8 | [Ace]8) | [Bd]8 | [FAc]8 | [GBd]8 | [FAd]8 | [GBd]8 | !fermata![Ace]8 | %8
 [df]3 [Ace]3 d/c/B/A/ | [Bd]3 [FAc]3 Ac | [GBd]3 [FAd]3 Ad | [GBd]3 [Ace]4 [Ace] |: %12
!p! [df]3 [Ace]4 [Ace] | [Bd]3 [FAc]2 z2 z | [GBd]3 [FAd]2 z!mf! d/c/B/A/ | %15
!p! [GBd]3 [Ace]4 [Ace] | [df]3 [Ace]4 [Ace] | [Bd]3 [FAc]2 z!mf! d/c/B/A/ | %18
!p! [GBd]3 [FAd]4 [FAd] | [GBd]3 [Ace]4 [Ace] :| [df]3 [Ace]4 [Ace] | [Bd]3 [FAc]4 [FAc] | %22
 [GBd]3 [FAd]4 [FAd] | [GBd]3 [Ace]4 [Ace] |!f! af/g/ af/g/ a/A/B/c/ d/e/f/g/ | %25
 fd/e/ fF/G/ A/B/A/G/ A/F/G/A/ | GB/A/ GF/E/ F/E/D/E/ F/G/A/B/ | GB/A/ Bc/d/ A/B/c/d/ e/f/g/a/ | %28
 af/g/ af/g/ a/A/B/c/ d/e/f/g/ | fd/e/ fF/G/ A/B/A/G/ A/F/G/A/ | GB/A/ GF/E/ F/E/D/E/ F/G/A/B/ | %31
 GB/A/ Bc/d/ A/B/c/d/ e/f/g/a/ | dc d/DC3/2cEF | DdcB cfab | gfeg fedc | BA G/FEC/G FE | %36
 DEFG AE A/GF/- | FB/D/ AG AGFE | D2 Bc dcBA | GFEB ABAG | A3 [df] [df]g[cf]e | d3 d dedc | B4 d4 | %43
 d=cBc [EA]4 | A3 [fa] [fa][gb][fa][eg] | [df]3 [df] fgfe | d=cBc A4 | G4 A4 | d2 [df]4 [ce]2 | %49
 [Bd]2 [Bd']4 [A=c']2 | [Bb]4 [fd']2 [da]2 | b4 a4- | a2 [d'f']4 [c'e']2 | d'6 =c'2 | b2 z2 a4 | %55
 d3 e c4 | e4 [df]4- | [df]8 | z8 | z8 | z8 | z8 | z8 | z8 | z8 | z8 | z8 | z8 | z8 | z8 | z8 | %71
 z8 | z8 | z8 | z8 | z8 | z8 | z8 | z8 | z8 | z8 | z8 | z8 | z8 | z8 | z8 | z8 | z8 | z8 | z8 | %90
 z8 | z8 | z8 | z8 | z8 | z8 | z8 | z8 | z8 | z8 | z8 | z8 | z8 | z8 | z8 | z8 | z8 | z8 | z8 | %109
 z8 | z8 | z8 | z8 | z8 | z8 | z8 | z8 | z8 | z8 | z8 | z8 | z8 | z8 | z8 | z8 | z8 | z8 | z8 | %128
 z8 | z8 | z8 | z8 | z8 | z8 | z8 | z8 | z8 | z8 | z8 | z8 | z8 | z8 | z8 | z8 | z8 | z8 | z8 | %147
 z z z2 z4 |] %148
V:2
!p! [df]8 | [Ace]8 | [Bd]8 | [FAc]8 | [GBd]8 | [FAd]8 | [GBd]8 | !fermata![Ace]8 | %8
 [df]3 [Ace]3 B/c/d/e/ | [Bd]3 [FAc]3 FA | [GBd]3 [FAd]3 FA | [GBd]3 [Ace]4 [Ace] |: %12
!mf! d2 f2 a2 g2 | f2 d2 f2 e2 | d2 B2 d2 A2 | G2 B2 c2 A2 |!mp! ddfa aAea | aBdf fFcf | %18
 fGBd dDAd | dGBd eAce :|!f! defg aeag | fbag agfe | dBbc' d'c'ba | gfeb abag | %24
!mf! [Adf]2 z [DAdf] [Ace]2 z [A,Ece] | [FBd]2 z [B,Fdf] [FAc]2 z [F,CAc] | %26
 [DGB]2 z [G,DBd] [DFA]2 z [Ad] | [DGB]2 z [G,DBd] [EAc]2 [Ac]/e/[A,E] | %28
 [Adf]2 z [DAdf] [Ace]2 z [A,Ece] | [FBd]2 z [B,Fdf] [FAc]2 z [F,CAc] | %30
 [DGB]2 z [G,DBd] [DFA]2 z [Ad] | [DGB]2 z [G,DBd] [EAc]2 [Ac]/e/[A,E] | fe f/dA3/2ccc | %33
 Bfed AAcd | BAGB AGFE | [Dd][Dd] D/DDB/c dD | A,CDD EA, E/ED/- | DE/D/ ED EEED | A,>B, DE FEDC | %39
 B,B,DD CDCB, | A3 [df] [df]2 [cf]2 | c2 B2 A4 | A2 G4 F2 | G4 E4 | A3 [fa] [fa][gb][fa][eg] | %45
 [df]3 [df] c4 | BAGG G2 F2 | d=cBc ^c z z2 | d2 [df]4 [ce]2 | [Bd]2 [Bd']4 [A=c']2 | %50
 [Bb]4 [fd']2 [da]2 | d6 c2 | d2 [d'f']4 [c'e']2 | c'2 b4 a2 | d2 g2 f2 d2 | B4 A4 | c4 [Fd]4- | %57
 [Fd]8 | z8 | z8 | z8 | z8 | z8 | z8 | z8 | z8 | z8 | z8 | z8 | z8 | z8 | z8 | z8 | z8 | z8 | z8 | %76
 z8 | z8 | z8 | z8 | z8 | z8 | z8 | z8 | z8 | z8 | z8 | z8 | z8 | z8 | z8 | z8 | z8 | z8 | z8 | %95
 z8 | z8 | z8 | z8 | z8 | z8 | z8 | z8 | z8 | z8 | z8 | z8 | z8 | z8 | z8 | z8 | z8 | z8 | z8 | %114
 z8 | z8 | z8 | z8 | z8 | z8 | z8 | z8 | z8 | z8 | z8 | z8 | z8 | z8 | z8 | z8 | z8 | z8 | z8 | %133
 z8 | z8 | z8 | z8 | z8 | z8 | z8 | z8 | z8 | z8 | z8 | z8 | z8 | z8 | z z z2 z4 |] %148
V:3
 [DF]8 | [A,C]8 | [B,D]8 | z8 | z8 | z8 | z8 | z8 | [DF]3 [A,C]3 [A,C]2 | [B,D]3 z z4 | z8 | z8 |: %12
!p! [FA]3 z4 z | [B,D]3 z z4 | z8 | [G,B,]3 z z4 | [FA]3 z4 z | [B,D]3 z z4 | z8 | [G,B,]3 z z4 :| %20
 [FA]3 z4 z | [B,D]3 z z4 | z3 z z4 | [G,B,]3 z z4 | z2!mf! DF z2 [Ac]e | z2 B,D z2 z C | %26
 z2 z D z2 z D | z2 z D z2 [A,C]/E/ z/ z/ | z2 DF z2 [Ac]e | z2 B,D z2 z C | z2 z D z2 z D | %31
 z2 z D z2 [A,C]E | z8 | z8 | z8 | z8 | z8 | z8 | z8 | z8 | z8 | z8 | z8 | z8 | z8 | c2 B2 A4 | %46
 z8 | z8 | z8 | z8 | z8 | z8 | z8 | z8 | z8 | z8 | z4 D4- | D2 D2 D4 | z8 | z8 | z8 | z8 | z8 | %63
 z8 | z8 | z8 | z8 | z8 | z8 | z8 | z8 | z8 | z8 | z8 | z8 | z8 | z8 | z8 | z8 | z8 | z8 | z8 | %82
 z8 | z8 | z8 | z8 | z8 | z8 | z8 | z8 | z8 | z8 | z8 | z8 | z8 | z8 | z8 | z8 | z8 | z8 | z8 | %101
 z8 | z8 | z8 | z8 | z8 | z8 | z8 | z8 | z8 | z8 | z8 | z8 | z8 | z8 | z8 | z8 | z8 | z8 | z8 | %120
 z8 | z8 | z8 | z8 | z8 | z8 | z8 | z8 | z8 | z8 | z8 | z8 | z8 | z8 | z8 | z8 | z8 | z8 | z8 | %139
 z8 | z8 | z8 | z8 | z8 | z8 | z8 | z8 | z8 |] %148
V:4
!pp! [D,A,]8 | [A,,E,]8 | [B,,F,]8 | [F,,C,F,A,]8 | [G,,D,G,B,]8 | [D,,A,,D,F,]8 | [G,,D,F,A,]8 | %7
 !fermata![A,,E,A,C]8 | [D,A,]3 [A,,E,]3 [A,,E,]2 | [B,,F,]3 [F,,C,F,A,]3 [F,,C,F,A,]2 | %10
 [G,,D,G,B,]3 [D,,A,,D,F,]3 [D,,A,,D,F,]2 | [G,,D,F,A,]3 [A,,E,A,C]3 z2 |: %12
 [D,A,]3 [A,,E,A,C]- [A,,E,A,C]4- | [A,,E,A,C]2 [B,,F,][F,,C,F,A,] [F,,C,F,A,]4 | %14
 [G,,D,G,B,]3 [D,,A,,D,F,]- [D,,A,,D,F,]4- | [D,,A,,D,F,]2 [G,,D,][A,,E,A,C] [A,,E,A,C]4 | %16
 [D,A,]3 [A,,E,A,C]- [A,,E,A,C]4- | [A,,E,A,C]2 [B,,F,][F,,C,F,A,] [F,,C,F,A,]4 | %18
 [G,,D,G,B,]3 [D,,A,,D,F,]- [D,,A,,D,F,]4 | [D,,A,,D,F,]2 [G,,D,][A,,E,A,C] [A,,E,A,C]4 :| %20
 [D,A,]3 [A,,E,A,C]- [A,,E,A,C]4 | [A,,E,A,C]2 [B,,F,][F,,C,F,A,] [F,,C,F,A,]4 | %22
 [G,,D,G,B,]3 [D,,A,,D,F,]- [D,,A,,D,F,]4 | [D,,A,,D,F,]2 [G,,D,][A,,E,A,C] [A,,E,A,C]4 | %24
!mf! D,A, z2 A,,E, z2 | B,,F, z2 F,,C,[F,A,] z | G,,D,[G,B,] z D,,A,,[D,F,] z | %27
 G,,D,[G,B,] z A,,E, z/ z/ [G,,D,] | D,A, z2 A,,E, z2 | B,,F, z2 F,,C,[F,A,] z | %30
 G,,D,[G,B,] z D,,A,,[D,F,] z | G,,D,[G,B,] z A,,E, z2 | D,A,DD, A,,E, A,A,,/^A,,/ | %33
 B,,F,B,B,, F,,C,F,F,, | G,,D,G,G,, D,,A,,D,D,, | G,,G,B,G, A,,A, C/A,/A,,/G,/ | %36
 D,,/D,A,A,/A, A,3/2C,CD/ | B,/B,,/F, C,,/D,,/E,, F,,/B,/C/D/ C/A,/C, | %38
 G,,/F,/G, E,,F,, G,,/F,/G,/A,/ B,/F,/B,,/F,/ | G,,/G,/A, B,G,, A,,/E,/G,,/E,/ F,,/E,/E,,/E,/ | %40
 [D,,A,,]4 [E,,A,,]4 | [F,,B,,]4 [C,,F,,]4 | [G,,D,]4 [D,,A,,]4 | [G,,D,]4 [A,,D,]2 C,2 | %44
 [D,,A,,]4 [E,,A,,]4 | z8 | [G,,D,]4 [D,,D,]4 | z8 | [D,A,]4 [A,,E,]4 | [B,,F,]4 [F,,C,]4 | %50
 [G,,D,]4 [D,,A,,]4 | [G,,D,]4 [A,,E,]4 | [D,A,]4 [A,,E,]4 | [B,,F,]4 [F,,C,]4 | %54
 [G,,D,]4 [D,,A,,]4 | [G,,D,]4 [A,,E,]4 | [A,,E,]4 [D,,A,,F,]4- | %57
 [D,,A,,F,]2 [D,,A,,F,]2 [D,,A,,F,]4 | z8 | z8 | z8 | z8 | z8 | z8 | z8 | z8 | z8 | z8 | z8 | z8 | %70
 z8 | z8 | z8 | z8 | z8 | z8 | z8 | z8 | z8 | z8 | z8 | z8 | z8 | z8 | z8 | z8 | z8 | z8 | z8 | %89
 z8 | z8 | z8 | z8 | z8 | z8 | z8 | z8 | z8 | z8 | z8 | z8 | z8 | z8 | z8 | z8 | z8 | z8 | z8 | %108
 z8 | z8 | z8 | z8 | z8 | z8 | z8 | z8 | z8 | z8 | z8 | z8 | z8 | z8 | z8 | z8 | z8 | z8 | z8 | %127
 z8 | z8 | z8 | z8 | z8 | z8 | z8 | z8 | z8 | z8 | z8 | z8 | z8 | z8 | z8 | z8 | z8 | z8 | z8 | %146
 z8 | z/ z/ z z2 z4 |] %148
V:5
!pp! [df]8 | [Ac]8 | [Bd]8 | [FA]8 | [GB]8 | [DF]8 | [GB]8 | !fermata![Ac]8 | d z de z AeA | %9
 B z BA z cAc | G z GA z DAD | B z Bc z Ace |:!mp! ddfa z Aea | z Bdf z Fcf | z GBd z DAd | %15
 z GBd z Ace |!mf! dcdD CAEF | DdcB cfab | gfeg fedc | BAGE GFED :| D2 d2 A2 c2 | F2 B2 E2 A2 | %22
 B,2 G2 F2 A2 | E2 d2 A2 c2 |!f! af/g/ af/g/ a/A/B/c/ d/e/f/g/ | fd/e/ fF/G/ A/B/A/G/ A/F/G/A/ | %26
 GB/A/ GF/E/ F/E/D/E/ F/G/A/B/ | GB/A/ Bc/d/ A/B/c/d/ e/f/g/a/ | af/g/ af/g/ a/A/B/c/ d/e/f/g/ | %29
 fd/e/ fF/G/ A/B/A/G/ A/F/G/A/ | GB/A/ GF/E/ F/E/D/E/ F/G/A/B/ | GB/A/ Bc/d/ A/B/c/d/ e/f/g/a/ | %32
 z8 | z8 | z8 | z8 | z8 | z8 | z8 | z8 | [DA]4 [A,E]4 | [B,G]4 [F,C]4 | z8 | z8 | [DA]4 [A,E]4 | %45
 B,4 F,4 | z8 | z8 | [DA]4 [A,E]4 | [B,F]4 [F,C]4 | z8 | z8 | [DA]4 [A,E]4 | [B,F]4 [F,C]4 | z8 | %55
 z8 | z4 [Af]4- | [Af]8 | z8 | z8 | z8 | z8 | z8 | z8 | z8 | z8 | z8 | z8 | z8 | z8 | z8 | z8 | %72
 z8 | z8 | z8 | z8 | z8 | z8 | z8 | z8 | z8 | z8 | z8 | z8 | z8 | z8 | z8 | z8 | z8 | z8 | z8 | %91
 z8 | z8 | z8 | z8 | z8 | z8 | z8 | z8 | z8 | z8 | z8 | z8 | z8 | z8 | z8 | z8 | z8 | z8 | z8 | %110
 z8 | z8 | z8 | z8 | z8 | z8 | z8 | z8 | z8 | z8 | z8 | z8 | z8 | z8 | z8 | z8 | z8 | z8 | z8 | %129
 z8 | z8 | z8 | z8 | z8 | z8 | z8 | z8 | z8 | z8 | z8 | z8 | z8 | z8 | z8 | z8 | z8 | z8 | z8 |] %148
V:6
 z8 | z8 | z8 | z8 | z8 | z8 | z8 | z8 | z8 | z8 | z8 | z8 |: z8 | z8 | z8 | z8 | z8 | z8 | z8 | %19
 z8 :| z8 | z8 | z8 | z8 | z8 | z8 | z8 | z8 | z8 | z8 | z8 | z8 | D,A,DA, A,,E, A,A,,/^A,,/ | %33
 B,,F,B,F, F,,C,F,C, | G,,D,G,D, F,A,,D,A,, | D,G,B,G, E,A, C/A,/A,,/G,/ | %36
 D,/D,D,D,/B,, C,3/2F,CC/ | B,/B,,/F, C,/D,/E, C,/B,/C/D/ C/A,/C, | %38
 D,/F,/G, B,,C, D,/F,/G,/A,/ B,/F,/B,,/F,/ | D,/G,/A, B,D, A,/E,/G,/E,/ F,/E,/E, | z/ z/ z z2 z4 | %41
 z8 | [G,D]4 [D,A,]4 | [G,D]4 [A,D]2 C2 | z8 | z8 | [G,D]4 [D,D]4 | [G,D]4 [A,E]4 | z8 | z8 | %50
 [G,D]4 [D,A,]4 | [G,D]4 [A,E]4 | z8 | z8 | [G,D]4 [D,A,]4 | [G,D]4 [A,E]4 | [A,E]4 [D,D]4- | %57
 [D,D]8 | z8 | z8 | z8 | z8 | z8 | z8 | z8 | z8 | z8 | z8 | z8 | z8 | z8 | z8 | z8 | z8 | z8 | z8 | %76
 z8 | z8 | z8 | z8 | z8 | z8 | z8 | z8 | z8 | z8 | z8 | z8 | z8 | z8 | z8 | z8 | z8 | z8 | z8 | %95
 z8 | z8 | z8 | z8 | z8 | z8 | z8 | z8 | z8 | z8 | z8 | z8 | z8 | z8 | z8 | z8 | z8 | z8 | z8 | %114
 z8 | z8 | z8 | z8 | z8 | z8 | z8 | z8 | z8 | z8 | z8 | z8 | z8 | z8 | z8 | z8 | z8 | z8 | z8 | %133
 z8 | z8 | z8 | z8 | z8 | z8 | z8 | z8 | z8 | z8 | z8 | z8 | z8 | z8 | z8 |] %148

